src/assets/svg/clock.svg

<?xml version="1.0" encoding="UTF-8"?>
<svg width="24px" height="24px" viewBox="0 0 24 24" version="1.1" xmlns="http://www.w3.org/2000/svg" xmlns:xlink="http://www.w3.org/1999/xlink">
    <title>08AC702C-79FD-4F6D-BEFB-AF4A80098E34@2.00x</title>
    <g id="Iconography" stroke="none" stroke-width="1" fill="none" fill-rule="evenodd">
        <g transform="translate(-256.000000, -373.000000)" fill="#173145" id="Group">
            <g transform="translate(256.000000, 373.000000)" id="Shape">
                <path d="M12,0 C18.627417,0 24,5.372583 24,12 C24,18.627417 18.627417,24 12,24 C5.372583,24 0,18.627417 0,12 C0,5.372583 5.372583,0 12,0 Z M12,2 C6.4771525,2 2,6.4771525 2,12 C2,17.5228475 6.4771525,22 12,22 C17.5228475,22 22,17.5228475 22,12 C22,6.4771525 17.5228475,2 12,2 Z M12,4 C12.5128358,4 12.9355072,4.38604019 12.9932723,4.88337887 L13,5 L13,11.165 L16.4902612,13.1284245 C16.9372364,13.379848 17.1163659,13.9235305 16.9228866,14.3853188 L16.8715755,14.4902612 C16.620152,14.9372364 16.0764695,15.1163659 15.6146812,14.9228866 L15.5097388,14.8715755 L11.5097388,12.6215755 C11.2298481,12.464137 11.0447843,12.1833874 11.0071144,11.8692085 L11,11.75 L11,5 C11,4.44771525 11.4477153,4 12,4 Z"></path>
            </g>
        </g>
    </g>
</svg>

<svg width="24" height="24" xmlns="http://www.w3.org/2000/svg"><path d="M12 0c6.627 0 12 5.373 12 12s-5.373 12-12 12S0 18.627 0 12 5.373 0 12 0zm0 2C6.477 2 2 6.477 2 12s4.477 10 10 10 10-4.477 10-10S17.523 2 12 2zm0 2a1 1 0 01.993.883L13 5v6.165l3.49 1.963a1 1 0 01.433 1.257l-.051.105a1 1 0 01-1.257.433l-.105-.051-4-2.25a1 1 0 01-.503-.753L11 11.75V5a1 1 0 011-1z" /></svg>
